img/icon-p2p-sisters.svg

<svg width="128" height="130" viewBox="0 0 128 130" fill="none" xmlns="http://www.w3.org/2000/svg">
<g filter="url(#filter0_d_579_1975)">
<path fill-rule="evenodd" clip-rule="evenodd" d="M60.3242 15.2397C48.3282 16.5784 40.5297 23.5038 37.7859 35.2544C37.5221 36.3842 37.1517 38.3443 36.9625 39.6102C36.5344 42.4766 36.3083 52.402 36.5947 55.7613C36.8018 58.1937 36.7962 58.2444 36.0373 60.7873C34.5629 65.728 33.5605 71.4154 33.844 73.2301C33.8978 73.5737 33.9966 74.2733 34.0634 74.7844L34.1851 75.7141L30.4139 78.9578C21.0579 87.0047 17.1314 92.184 15.4096 98.7477C14.8828 100.756 14.875 101.05 15.3236 101.917C15.7081 102.661 16.8119 103.229 17.8708 103.229C18.2435 103.229 18.5466 103.304 18.5448 103.397C18.5428 103.489 18.34 104.67 18.0936 106.021C17.4915 109.324 17.2831 112.831 17.6376 113.687C18.233 115.124 20.3472 115.463 21.4428 114.297C21.8791 113.832 21.9937 113.332 22.2475 110.78C22.5328 107.911 23.0649 104.835 23.4523 103.816C23.6343 103.337 23.6929 103.33 26.1758 103.501C29.4017 103.724 34.3976 104.425 37.9841 105.157C42.1114 106 46.8328 107.425 54.2575 110.069C61.5301 112.658 65.0795 113.705 69.1485 114.459C71.4714 114.89 72.5598 114.955 77.3026 114.943C87.2779 114.919 93.9643 113.83 99.1285 111.388C101.818 110.116 103.42 109.038 105.376 107.184C106.256 106.349 107.022 105.746 107.078 105.844C107.261 106.164 107.467 107.594 107.776 110.699C108.037 113.33 108.151 113.83 108.588 114.297C109.639 115.415 111.742 115.142 112.35 113.808C113.008 112.365 112.228 105.909 110.909 101.873L110.356 100.181L110.936 98.869C111.788 96.9426 112.6 94.3387 112.6 93.5334C112.6 92.5943 112.134 91.9811 110.743 91.0908C103.586 86.5095 97.5486 76.1629 95.1787 64.4172C94.194 59.5369 93.8479 56.0573 93.6178 48.7249C93.3933 41.5699 93.0401 38.3834 92.0471 34.5554C89.9226 26.3648 85.7115 20.9481 78.9958 17.767C74.1889 15.4903 66.9094 14.505 60.3242 15.2397ZM68.3452 19.926C79.2625 20.9486 85.6958 26.6907 87.8901 37.3713C88.4948 40.3141 88.699 42.7641 88.9231 49.7603C89.1974 58.3286 89.7157 62.6508 91.1564 68.3822C92.4691 73.6036 94.7791 79.3205 97.1442 83.2008L98.0754 84.7285L97.3824 86.3929C94.8508 92.4733 90.4344 96.0232 82.9225 98.015C81.736 98.3298 80.5904 98.6796 80.3766 98.7926C79.9001 99.0448 79.3133 100.137 79.3133 100.772C79.3133 101.594 79.9873 102.583 80.7705 102.911C81.4291 103.186 81.7398 103.182 83.1508 102.886C85.3379 102.426 89.0144 101.179 90.7449 100.31C94.532 98.4082 97.9366 95.2646 100.022 91.7437C100.661 90.6652 101.224 89.667 101.272 89.5256C101.321 89.3839 102.36 90.2229 103.582 91.3901C104.804 92.5572 106.175 93.7635 106.629 94.0706C107.594 94.7238 107.604 94.6443 106.213 97.6116C102.922 104.637 97.4997 108.202 88.0073 109.583C85.0299 110.017 76.1367 110.452 74.0633 110.266C69.3185 109.841 65.6232 108.956 59.0494 106.672C49.4045 103.322 47.6558 102.741 44.6544 101.89C37.882 99.9709 28.3416 98.5382 22.3339 98.5382C21.0107 98.5382 20.5588 98.4629 20.5588 98.2427C20.5588 97.6896 22.5147 93.9641 23.6323 92.3881C25.5674 89.6602 28.933 86.3362 34.4371 81.7165L35.6933 80.6621L36.7618 82.8146C40.4871 90.3201 46.9277 94.8189 55.9678 96.2296C58.6848 96.6535 64.4832 96.6991 67.5847 96.3207C72.9077 95.6711 79.1928 94.1276 84.5563 92.1527C86.0926 91.5869 87.5952 90.9311 87.895 90.6952C89.2568 89.6241 89.0299 87.5109 87.4734 86.7686C86.5423 86.3248 86.6573 86.2991 81.7707 88.0379C75.0237 90.4385 69.3315 91.5775 63.1167 91.7701C55.9413 91.9925 51.1739 90.8017 46.7874 87.6916C42.7856 84.8541 39.6051 79.2627 38.6433 73.3738C38.4159 71.9812 38.5209 68.5551 38.8051 68.0954C38.8661 67.9969 39.2548 68.6232 39.669 69.4875C41.6789 73.6809 44.729 76.7586 48.7687 78.6696C50.3947 79.4387 51.0191 79.4829 51.9795 78.8975C53.0069 78.2709 53.3362 77.1243 52.8023 76.0315C52.4707 75.3536 52.034 75.0062 50.4945 74.1972C49.149 73.4899 48.0999 72.7088 46.8946 71.5166C45.4544 70.0921 45.021 69.4743 44.0686 67.4887C42.1623 63.5143 41.4725 59.7908 41.2129 52.0756C40.8289 40.6646 42.4376 32.7758 46.1822 27.7075C50.5504 21.795 58.5001 19.0039 68.3452 19.926ZM61.6646 24.7406C54.0716 26.21 48.1195 31.4426 46.3723 38.1846C45.8665 40.1365 45.8634 56.4853 46.3688 58.4508C47.8218 64.1045 52.6112 69.1341 58.3915 71.0763C67.9835 74.2992 78.4491 70.129 82.5316 61.4575C83.9678 58.4068 84.0047 58.0782 84.0047 48.3193C84.0047 38.8639 83.9491 38.2881 82.7782 35.6408C81.5931 32.9614 79.1701 30.0083 76.7249 28.2638C75.0803 27.0904 72.143 25.6793 70.2655 25.1608C68.9425 24.7954 62.9056 24.5005 61.6646 24.7406ZM69.5953 29.9666C71.7665 30.6342 73.718 31.7683 75.3952 33.3373C76.6322 34.4942 78.1962 36.5164 78.1962 36.959C78.1962 37.0392 77.4025 36.8149 76.4323 36.4608C73.8084 35.5034 69.6576 34.4895 67.1937 34.2043C63.7156 33.8015 59.4306 34.4873 54.1248 36.296C52.8655 36.7251 51.8349 37.0173 51.8349 36.9449C51.8349 36.5151 53.4168 34.4775 54.6359 33.3373C56.7721 31.3392 59.3656 30.0398 62.2818 29.5064C64.0297 29.1868 67.8392 29.4264 69.5953 29.9666ZM71.1008 39.7594C72.5433 40.1396 74.956 40.9391 76.4624 41.5355L79.2016 42.6202L79.2704 49.3024C79.3477 56.8007 79.2529 57.6053 78.0099 60.0055C76.3393 63.2318 72.7444 65.9532 68.8134 66.9675C66.8846 67.4654 63.1466 67.4654 61.2178 66.9675C57.2868 65.9532 53.6918 63.2318 52.0212 60.0055C50.7787 57.6062 50.6835 56.7991 50.7608 49.3216L50.8296 42.6587L52.2927 42.0345C54.6203 41.0419 58.3466 39.837 60.5963 39.3495C63.687 38.6799 67.5838 38.832 71.1008 39.7594ZM82.4795 68.1204C82.1511 68.4677 81.43 69.5938 80.8771 70.6224C79.1419 73.8509 75.7694 76.9925 71.418 79.4338C69.5725 80.4692 69.2656 82.394 70.7586 83.5683C71.677 84.2907 72.7272 84.1497 74.6683 83.0436C79.3948 80.3503 82.7637 77.0588 85.2387 72.7164C86.4663 70.5624 86.6634 69.684 86.1375 68.7079C85.4007 67.3397 83.5054 67.0352 82.4795 68.1204Z" fill="#06FF79"/>
</g>
<defs>
<filter id="filter0_d_579_1975" x="0" y="0" width="127.6" height="130" filterUnits="userSpaceOnUse" color-interpolation-filters="sRGB">
<feFlood flood-opacity="0" result="BackgroundImageFix"/>
<feColorMatrix in="SourceAlpha" type="matrix" values="0 0 0 0 0 0 0 0 0 0 0 0 0 0 0 0 0 0 127 0" result="hardAlpha"/>
<feOffset/>
<feGaussianBlur stdDeviation="7.5"/>
<feComposite in2="hardAlpha" operator="out"/>
<feColorMatrix type="matrix" values="0 0 0 0 0.0463889 0 0 0 0 0.695833 0 0 0 0 0.346333 0 0 0 0.8 0"/>
<feBlend mode="normal" in2="BackgroundImageFix" result="effect1_dropShadow_579_1975"/>
<feBlend mode="normal" in="SourceGraphic" in2="effect1_dropShadow_579_1975" result="shape"/>
</filter>
</defs>
</svg>

<svg width="128" height="130" fill="none" xmlns="http://www.w3.org/2000/svg"><g filter="url(#filter0_d_579_1975)"><path fill-rule="evenodd" clip-rule="evenodd" d="M60.324 15.24c-11.996 1.338-19.794 8.264-22.538 20.014a66.437 66.437 0 00-.824 4.356c-.428 2.867-.654 12.792-.367 16.151.207 2.433.201 2.483-.558 5.026-1.474 4.941-2.477 10.628-2.193 12.443.054.344.153 1.043.22 1.554l.121.93-3.771 3.244c-9.356 8.047-13.283 13.226-15.004 19.79-.527 2.008-.535 2.302-.086 3.169.384.744 1.488 1.312 2.547 1.312.373 0 .676.075.674.168-.002.092-.205 1.273-.451 2.624-.603 3.303-.81 6.81-.456 7.666.595 1.437 2.71 1.776 3.805.61.436-.465.55-.965.804-3.517.286-2.869.818-5.945 1.205-6.964.182-.479.24-.486 2.724-.315 3.226.223 8.222.924 11.808 1.656 4.127.843 8.849 2.268 16.273 4.912 7.273 2.589 10.822 3.636 14.892 4.39 2.322.431 3.41.496 8.154.484 9.975-.024 16.661-1.113 21.826-3.555 2.689-1.272 4.291-2.35 6.247-4.204.88-.835 1.646-1.438 1.702-1.34.183.32.389 1.75.698 4.855.261 2.631.375 3.131.812 3.598 1.051 1.118 3.154.845 3.762-.489.658-1.443-.122-7.899-1.441-11.935l-.553-1.692.58-1.312c.852-1.926 1.664-4.53 1.664-5.336 0-.939-.466-1.552-1.857-2.442-7.157-4.581-13.194-14.928-15.564-26.674-.985-4.88-1.331-8.36-1.561-15.692-.225-7.155-.578-10.342-1.57-14.17-2.125-8.19-6.337-13.607-13.052-16.788-4.807-2.277-12.087-3.262-18.672-2.527zm8.021 4.686c10.918 1.023 17.35 6.765 19.545 17.445.605 2.943.809 5.393 1.033 12.39.274 8.568.793 12.89 2.233 18.621 1.313 5.222 3.623 10.938 5.988 14.819l.931 1.528-.693 1.664c-2.531 6.08-6.948 9.63-14.46 11.622-1.186.315-2.332.665-2.545.778-.477.252-1.064 1.344-1.064 1.979 0 .822.674 1.811 1.457 2.139.66.275.97.271 2.38-.025 2.188-.46 5.864-1.707 7.595-2.576 3.787-1.902 7.192-5.045 9.277-8.566.639-1.079 1.202-2.077 1.25-2.218.049-.142 1.088.697 2.31 1.864 1.222 1.167 2.593 2.373 3.047 2.68.965.654.975.574-.416 3.542-3.291 7.025-8.713 10.59-18.206 11.971-2.977.434-11.87.869-13.944.683-4.745-.425-8.44-1.31-15.014-3.594-9.645-3.35-11.393-3.931-14.395-4.782-6.772-1.92-16.312-3.352-22.32-3.352-1.323 0-1.775-.075-1.775-.295 0-.553 1.956-4.279 3.073-5.855 1.935-2.728 5.301-6.052 10.805-10.672l1.256-1.054 1.069 2.153c3.725 7.505 10.166 12.004 19.206 13.415 2.717.423 8.515.47 11.617.09 5.323-.649 11.608-2.192 16.971-4.167 1.537-.566 3.04-1.222 3.339-1.458 1.362-1.07 1.135-3.184-.422-3.926-.93-.444-.816-.47-5.702 1.269-6.747 2.4-12.44 3.54-18.654 3.732-7.176.223-11.943-.968-16.33-4.078-4.001-2.838-7.182-8.43-8.144-14.318-.227-1.393-.122-4.819.162-5.279.061-.098.45.528.864 1.392 2.01 4.194 5.06 7.272 9.1 9.183 1.626.769 2.25.813 3.21.227 1.028-.626 1.357-1.773.823-2.866-.331-.677-.768-1.025-2.307-1.834-1.346-.707-2.395-1.488-3.6-2.68-1.44-1.425-1.874-2.043-2.826-4.028-1.907-3.975-2.597-7.698-2.856-15.413-.384-11.411 1.225-19.3 4.97-24.369 4.367-5.912 12.317-8.703 22.162-7.781zm-6.68 4.815c-7.593 1.469-13.545 6.702-15.293 13.444-.505 1.951-.509 18.3-.003 20.266 1.453 5.654 6.242 10.683 12.023 12.625 9.592 3.223 20.057-.947 24.14-9.618 1.436-3.051 1.473-3.38 1.473-13.139 0-9.455-.056-10.03-1.227-12.678-1.185-2.68-3.608-5.633-6.053-7.377-1.645-1.174-4.582-2.585-6.46-3.103-1.323-.366-7.36-.66-8.6-.42zm7.93 5.226a14.79 14.79 0 015.8 3.37c1.237 1.157 2.801 3.18 2.801 3.622 0 .08-.793-.144-1.764-.498-2.624-.958-6.774-1.971-9.238-2.257-3.478-.403-7.763.283-13.07 2.092-1.259.43-2.29.721-2.29.649 0-.43 1.583-2.468 2.802-3.608 2.136-1.998 4.73-3.297 7.646-3.83 1.748-.32 5.557-.08 7.313.46zm1.506 9.792c1.442.38 3.855 1.18 5.361 1.776l2.74 1.085.068 6.682c.078 7.499-.017 8.303-1.26 10.703-1.67 3.227-5.266 5.948-9.197 6.962-1.928.498-5.666.498-7.595 0-3.931-1.014-7.526-3.735-9.197-6.962-1.242-2.399-1.337-3.206-1.26-10.683l.069-6.663 1.463-.624c2.327-.993 6.054-2.198 8.303-2.685 3.091-.67 6.988-.518 10.505.41zM82.48 68.12c-.329.348-1.05 1.474-1.603 2.502-1.735 3.229-5.108 6.37-9.459 8.812-1.846 1.035-2.152 2.96-.66 4.134.919.723 1.97.582 3.91-.524 4.727-2.694 8.096-5.985 10.57-10.328 1.228-2.154 1.425-3.032.9-4.008-.737-1.368-2.633-1.673-3.659-.588z" fill="#06FF79"/></g><defs><filter id="filter0_d_579_1975" x="0" y="0" width="127.6" height="130" filterUnits="userSpaceOnUse" color-interpolation-filters="sRGB"><feFlood flood-opacity="0" result="BackgroundImageFix"/><feColorMatrix in="SourceAlpha" values="0 0 0 0 0 0 0 0 0 0 0 0 0 0 0 0 0 0 127 0" result="hardAlpha"/><feOffset/><feGaussianBlur stdDeviation="7.5"/><feComposite in2="hardAlpha" operator="out"/><feColorMatrix values="0 0 0 0 0.0463889 0 0 0 0 0.695833 0 0 0 0 0.346333 0 0 0 0.8 0"/><feBlend in2="BackgroundImageFix" result="effect1_dropShadow_579_1975"/><feBlend in="SourceGraphic" in2="effect1_dropShadow_579_1975" result="shape"/></filter></defs></svg>
